!!!OTL: Das bucklichte Maennlein.
!!!OTL-incipit: WILL ICH IN MEIN GAERTLEIN GEHN
!!!ARE: Europa, Mitteleuropa, Deutschland, Rhein
!!!SCT: Z1364
!!!TXL: @@DE
!!!YEM: Copyright 1995, estate of Helmut Schaffrath.
**kern	**text
*ICvox	*
*M2/4	*
*k[f#c#g#]	*
*A:	*
=1	=1
!LO:TX:a:t=Vom Rheine.	!
{8a	Will
8a	ich
8a	in
8a	mein
=2	=2
8b/	Gärtlein
8b/	.
4b/}	gehn,
=3	=3
{8cc#	will
8a	die
8g#	Ʒwiebeln
8a	.
=4	=4
4b/	gie-
4e}	-ßen;
=5	=5
{8a	ſteht
8a	ein
8a	buck-
8a	-licht
=6	=6
8b/	Männlein
8b/	.
4b/}	da,
=7	=7
{8cc#	fängt
8a	laut
8g#	an
8b/	ʒu
=8	=8
4a	nie-
4a}	-ſen.
==	==
!!!AGN: Kinder - Lied
!!!ONB: ESAC (Essen Associative Code) Database: ZUCCAL
!!!AMT: simple duple
!!!AIN: vox
!!!EED: Helmut Schaffrath
!!!EEV: 1.0
!!!GTL: IX. Kinder- Lieder.
!!!URL-scan: https://www.digitale-sammlungen.de/de/view/bsb11160573?page=666
!!!ENC: Anna Maria Matuszewska
!!!EEV: 2025/02/07
*-	*-
